X: 124002
Q: "Reel."
M: C
L: 1/8
K: G
|: (GA) |\
(ga) |\
b2ag (.a2.e2) | g2e2 d2B2 |\
b2ag (.a2.e2) | egfa g2(ga) |\
b2ag (.a2.e2) | gfge d2(dc) |\


